packages/paste-icons/svg/ProductEventStreams.svg

<svg width="20" height="20" viewBox="0 0 20 20" fill="none" xmlns="http://www.w3.org/2000/svg">
<path fill-rule="evenodd" clip-rule="evenodd" d="M5.49579 10.562H8.28728C8.43633 10.562 8.57927 10.5028 8.68466 10.3974C8.79005 10.292 8.84925 10.149 8.84925 10C8.84925 9.85096 8.79005 9.70801 8.68466 9.60262C8.57927 9.49723 8.43633 9.43803 8.28728 9.43803H5.49579C5.04881 9.43754 4.62027 9.25976 4.30421 8.94369C3.98814 8.62763 3.81036 8.19909 3.80987 7.7521V5.42441C4.33962 5.28763 4.8013 4.96234 5.10837 4.50951C5.41544 4.05669 5.54682 3.50741 5.47788 2.96465C5.40894 2.42189 5.14441 1.9229 4.73389 1.56122C4.32336 1.19954 3.79502 1 3.2479 1C2.70078 1 2.17244 1.19954 1.76191 1.56122C1.35139 1.9229 1.08686 2.42189 1.01792 2.96465C0.948982 3.50741 1.08036 4.05669 1.38743 4.50951C1.6945 4.96234 2.15618 5.28763 2.68593 5.42441V7.7521C2.68712 8.18995 2.79101 8.6214 2.98923 9.0118C3.18745 9.40221 3.47448 9.74067 3.82726 10C3.47448 10.2593 3.18745 10.5978 2.98923 10.9882C2.79101 11.3786 2.68712 11.8101 2.68593 12.2479V14.5756C2.15618 14.7124 1.6945 15.0377 1.38743 15.4905C1.08036 15.9433 0.948982 16.4926 1.01792 17.0353C1.08686 17.5781 1.35139 18.0771 1.76191 18.4388C2.17244 18.8005 2.70078 19 3.2479 19C3.79502 19 4.32336 18.8005 4.73389 18.4388C5.14441 18.0771 5.40894 17.5781 5.47788 17.0353C5.54682 16.4926 5.41544 15.9433 5.10837 15.4905C4.8013 15.0377 4.33962 14.7124 3.80987 14.5756V12.2479C3.81036 11.8009 3.98814 11.3724 4.30421 11.0563C4.62027 10.7402 5.04881 10.5625 5.49579 10.562ZM2.12395 3.25631C2.12395 3.03402 2.18987 2.81672 2.31337 2.63188C2.43687 2.44705 2.61241 2.30299 2.81778 2.21792C3.02316 2.13285 3.24915 2.1106 3.46717 2.15396C3.6852 2.19733 3.88546 2.30438 4.04265 2.46156C4.19984 2.61875 4.30688 2.81902 4.35025 3.03704C4.39362 3.25507 4.37136 3.48106 4.28629 3.68643C4.20122 3.89181 4.05716 4.06734 3.87233 4.19084C3.6875 4.31434 3.4702 4.38026 3.2479 4.38026C2.9499 4.37996 2.66419 4.26145 2.45348 4.05074C2.24276 3.84002 2.12425 3.55431 2.12395 3.25631ZM4.37185 16.7437C4.37185 16.966 4.30593 17.1833 4.18243 17.3681C4.05893 17.5529 3.88339 17.697 3.67802 17.7821C3.47264 17.8671 3.24665 17.8894 3.02863 17.846C2.8106 17.8027 2.61034 17.6956 2.45315 17.5384C2.29596 17.3812 2.18892 17.181 2.14555 16.963C2.10218 16.7449 2.12444 16.5189 2.20951 16.3136C2.29458 16.1082 2.43864 15.9327 2.62347 15.8092C2.8083 15.6857 3.0256 15.6197 3.2479 15.6197C3.54588 15.6201 3.83157 15.7386 4.04227 15.9493C4.25298 16.16 4.37151 16.4457 4.37185 16.7437ZM17.2972 14.8681V12.2479C17.296 11.81 17.1922 11.3786 16.9939 10.9882C16.7957 10.5978 16.5087 10.2593 16.1559 9.99999C16.5087 9.74066 16.7957 9.40219 16.9939 9.01179C17.1922 8.62139 17.296 8.18993 17.2972 7.75209V5.13187C17.75 4.99688 18.139 4.70343 18.3932 4.30518C18.6474 3.90693 18.7498 3.43049 18.6816 2.96299C18.6134 2.49548 18.3791 2.06814 18.0218 1.75912C17.6644 1.4501 17.2077 1.28004 16.7353 1.28004C16.2628 1.28004 15.8061 1.4501 15.4488 1.75912C15.0914 2.06814 14.8572 2.49548 14.789 2.96299C14.7208 3.43049 14.8231 3.90693 15.0773 4.30518C15.3315 4.70343 15.7205 4.99688 16.1733 5.13187V7.75209C16.1728 8.19908 15.995 8.62761 15.679 8.94368C15.3629 9.25974 14.9344 9.43752 14.4874 9.43801H13.3634V7.1056C13.3629 6.65862 13.1852 6.23008 12.8691 5.91401C12.553 5.59795 12.1245 5.42017 11.6775 5.41968H8.30566C7.85867 5.42017 7.43013 5.59795 7.11407 5.91401C6.798 6.23008 6.62022 6.65862 6.61973 7.1056V7.75209C6.61973 7.90114 6.67894 8.04408 6.78433 8.14947C6.88972 8.25486 7.03266 8.31406 7.18171 8.31406C7.33075 8.31406 7.47369 8.25486 7.57908 8.14947C7.68447 8.04408 7.74368 7.90114 7.74368 7.75209V7.1056C7.74388 6.95662 7.80315 6.81379 7.90849 6.70844C8.01384 6.60309 8.15667 6.54382 8.30566 6.54363H11.6775C11.8265 6.54382 11.9693 6.60309 12.0747 6.70844C12.18 6.81379 12.2393 6.95662 12.2395 7.1056V12.8099C12.2393 12.9589 12.1801 13.1017 12.0747 13.2071C11.9694 13.3124 11.8265 13.3717 11.6775 13.3718H8.30566C8.15666 13.3717 8.0138 13.3124 7.90844 13.2071C7.80309 13.1017 7.74383 12.9589 7.74368 12.8099V12.2056C7.74368 12.0566 7.68447 11.9136 7.57908 11.8082C7.47369 11.7029 7.33075 11.6436 7.18171 11.6436C7.03266 11.6436 6.88972 11.7029 6.78433 11.8082C6.67894 11.9136 6.61973 12.0566 6.61973 12.2056V12.8099C6.62022 13.2568 6.798 13.6854 7.11407 14.0014C7.43013 14.3175 7.85867 14.4953 8.30566 14.4958H11.6775C12.1245 14.4953 12.553 14.3175 12.8691 14.0014C13.1852 13.6854 13.3629 13.2568 13.3634 12.8099V10.562H14.4874C14.9344 10.5624 15.3629 10.7402 15.679 11.0563C15.995 11.3724 16.1728 11.8009 16.1733 12.2479V14.8681C15.7205 15.0031 15.3315 15.2965 15.0773 15.6948C14.8231 16.093 14.7208 16.5695 14.789 17.037C14.8572 17.5045 15.0914 17.9318 15.4488 18.2408C15.8061 18.5499 16.2628 18.7199 16.7353 18.7199C17.2077 18.7199 17.6644 18.5499 18.0218 18.2408C18.3791 17.9318 18.6134 17.5045 18.6816 17.037C18.7498 16.5695 18.6474 16.093 18.3932 15.6948C18.139 15.2965 17.75 15.0031 17.2972 14.8681ZM8.76378 11.3919C8.79214 11.3237 8.83368 11.2617 8.886 11.2096L9.93914 10.1564C9.96524 10.1303 9.98594 10.0994 10.0001 10.0653C10.0142 10.0312 10.0215 9.99465 10.0215 9.95776C10.0215 9.92086 10.0142 9.88433 10.0001 9.85024C9.98594 9.81615 9.96524 9.78518 9.93914 9.7591L8.886 8.70596C8.83368 8.65381 8.79214 8.59186 8.76378 8.52365C8.73542 8.45543 8.72079 8.3823 8.72073 8.30842C8.72067 8.23455 8.73517 8.16139 8.76341 8.09312C8.79165 8.02486 8.83308 7.96283 8.88531 7.9106C8.93755 7.85836 8.99957 7.81694 9.06784 7.7887C9.1361 7.76046 9.20926 7.74595 9.28314 7.74602C9.35701 7.74608 9.43015 7.76071 9.49836 7.78907C9.56658 7.81743 9.62853 7.85896 9.68067 7.91129L10.7338 8.96443C10.8643 9.09485 10.9678 9.24971 11.0384 9.42014C11.1091 9.59058 11.1454 9.77327 11.1454 9.95776C11.1454 10.1423 11.1091 10.3249 11.0384 10.4954C10.9678 10.6658 10.8643 10.8207 10.7338 10.9511L9.68067 12.0042C9.62853 12.0566 9.56658 12.0981 9.49836 12.1264C9.43015 12.1548 9.35701 12.1694 9.28314 12.1695C9.20926 12.1696 9.1361 12.1551 9.06784 12.1268C8.99957 12.0986 8.93755 12.0572 8.88531 12.0049C8.83308 11.9527 8.79165 11.8907 8.76341 11.8224C8.73517 11.7541 8.72067 11.681 8.72073 11.6071C8.72079 11.5332 8.73542 11.4601 8.76378 11.3919Z" fill="#606B85"/>
</svg>

<svg xmlns="http://www.w3.org/2000/svg" width="20" height="20" fill="none" viewBox="0 0 20 20">
  <path fill="#606B85" fill-rule="evenodd" d="M5.496 10.562h2.791a.562.562 0 100-1.124H5.496A1.688 1.688 0 013.81 7.752V5.424a2.248 2.248 0 10-1.124 0v2.328A2.8 2.8 0 003.827 10a2.8 2.8 0 00-1.141 2.248v2.328a2.248 2.248 0 101.124 0v-2.328a1.688 1.688 0 011.686-1.686zM2.124 3.256a1.124 1.124 0 112.248 0 1.124 1.124 0 01-2.248 0zm2.248 13.488a1.124 1.124 0 11-2.248 0 1.124 1.124 0 012.248 0zm12.925-1.876v-2.62A2.798 2.798 0 0016.156 10a2.799 2.799 0 001.141-2.248v-2.62a1.967 1.967 0 10-1.124 0v2.62a1.688 1.688 0 01-1.686 1.686h-1.124V7.106a1.688 1.688 0 00-1.685-1.686H8.306A1.688 1.688 0 006.62 7.106v.646a.562.562 0 101.124 0v-.646a.563.563 0 01.562-.562h3.372a.563.563 0 01.561.562v5.704a.563.563 0 01-.562.562H8.306a.563.563 0 01-.562-.562v-.604a.562.562 0 00-1.124 0v.604a1.688 1.688 0 001.686 1.686h3.372a1.688 1.688 0 001.685-1.686v-2.248h1.124a1.687 1.687 0 011.686 1.686v2.62a1.967 1.967 0 101.124 0zm-8.533-3.476a.562.562 0 01.122-.182l1.053-1.054a.281.281 0 000-.397L8.886 8.706a.562.562 0 11.795-.795l1.053 1.053a1.404 1.404 0 010 1.987L9.68 12.004a.56.56 0 01-.796 0 .561.561 0 01-.121-.612z" clip-rule="evenodd"/>
</svg>
